X:189
M:4/4
L:1/4
K:D
F | F F G F | F2 E D | D B A G | F3 G | A d d c | c2 B A | G A F D | E3 E | F G A B | B2 A d | d3/2 c/ B F | G3 E | F F G F | F2 E !sintro!D | D E D C | D3 !eintro!|]
